media/new-tab.svg

<svg width="18" height="18" viewBox="0 0 18 18" xmlns="http://www.w3.org/2000/svg"><path d="M16 16h-14v-14h7v-2h-7a2 2 0 0 0-2 2v14a2 2 0 0 0 2 2h14c1.1 0 2-.9 2-2v-7h-2v7zm-5-16v2h3.59l-9.83 9.83 1.41 1.41 9.83-9.83v3.59h2v-7h-7z" fill="#FFF" fill-rule="evenodd"/></svg>

<svg width="18" height="18" viewBox="0 0 18 18" xmlns="http://www.w3.org/2000/svg"><path d="M16 16H2V2h7V0H2a2 2 0 0 0-2 2v14a2 2 0 0 0 2 2h14c1.1 0 2-.9 2-2V9h-2v7zM11 0v2h3.59l-9.83 9.83 1.41 1.41L16 3.41V7h2V0h-7z" fill="#FFF" fill-rule="evenodd"/></svg>
